!!!id: 16xx:1231
!!!COM: Anonim
!!!OTL: Alto ex Olympi vertice
!!!PDT:
!!!SMS-siglum: PL-Kk
!!!SMS-shelfmark: Kk.I.10
!!!NIFC-rismID: 1001154023
!!!URL-scan: http://repozytorium.nifc.pl/skany/pl-kk-nut--i-10
!!!ONB-nifc: UWAGA: A (0050), T (0100), B (0145).
!!!SMS-variant:
!!!SMS-altvar:
**kern	**text	**text	**text	**text	**text	**kern	**text	**text	**text	**text	**text	**kern	**text	**text	**text	**text	**text
*part3	*part3	*part3	*part3	*part3	*part3	*part2	*part2	*part2	*part2	*part2	*part2	*part1	*part1	*part1	*part1	*part1	*part1
*staff3	*staff3	*staff3	*staff3	*staff3	*staff3	*staff2	*staff2	*staff2	*staff2	*staff2	*staff2	*staff1	*staff1	*staff1	*staff1	*staff1	*staff1
*I"[Baſsus]	*	*	*	*	*	*I"[Tenor]	*	*	*	*	*	*I"[Altus]	*	*	*	*	*
*I'B	*	*	*	*	*	*I'T	*	*	*	*	*	*I'A	*	*	*	*	*
*clefF4	*	*	*	*	*	*clefC4	*	*	*	*	*	*clefC3	*	*	*	*	*
*k[]	*	*	*	*	*	*k[]	*	*	*	*	*	*k[]	*	*	*	*	*
*M3/1	*	*	*	*	*	*M3/1	*	*	*	*	*	*M3/1	*	*	*	*	*
=1-	=1-	=1-	=1-	=1-	=1-	=1-	=1-	=1-	=1-	=1-	=1-	=1-	=1-	=1-	=1-	=1-	=1-
0E	Al-	Sed	Haec	Hic	De-	0B	Al-	Sed	Haec	Hic	De-	(0e	1 Al-	2 Sed	3 Heac	4 Hic	5 De-
1AA	-to	.	.	.	.	1c	-to	.	.	.	.	1e)	-to	.	.	.	.
=2-	=2-	=2-	=2-	=2-	=2-	=2-	=2-	=2-	=2-	=2-	=2-	=2-	=2-	=2-	=2-	=2-	=2-
1.E	ex	il-	tem-	im-	-c(us)	1.B	ex	il-	tem-	im-	-c(us)	1.e	ex	il-	tem-	im-	-c(us)
2E\	o-	-la	-pla	-pe-	Pa-	2B\	o-	-la	-pla	-pe-	Pa-	2e\	o-	-la	-pla	-pe-	Pa-
!LO:TX:t=Pro dedica(ti)o(n)e Eccle(si)ae	!	!	!	!	!	!LO:TX:t=de dedicaoe	!	!	!	!	!	!	!	!	!	!	!
1E	-lym-	Se-	rex	-trent	-ren-	1B	-lym-	Se-	rex	-trent	-ren-	1e	-lym-	Se-	Rex	-trent	-ren-
=3-	=3-	=3-	=3-	=3-	=3-	=3-	=3-	=3-	=3-	=3-	=3-	=3-	=3-	=3-	=3-	=3-	=3-
1A	-pi	-des	Cae-	Fi-	-ti	1c	-pi	-des	Cae-	Fi-	-ti	1e	-pi	-des	Cae-	fi-	-ti
1.G	Ver-	cae-	-les-	-de-	de-	1.c	Ver-	cae-	-les-	-de-	de-	1.g	Ver-	cae-	-les-	-de-	de-
2G\	-ti-	-li-	-ti-	-li-	-bi-	2B\	-ti-	-li-	-ti-	-li-	-bi-	2g\	-ti-	-li-	-ti-	-li-	-bi-
=4-	=4-	=4-	=4-	=4-	=4-	=4-	=4-	=4-	=4-	=4-	=4-	=4-	=4-	=4-	=4-	=4-	=4-
!	!	!	!	!	!	!	!	!	!	!	!	!LO:TX:t=de dedica(ti)o(n)e Eccle(si)ae	!	!	!	!	!
0.C	-ce	-tum	-um	-u(m)	-tu(m)	0.c	-ce	-tum	-um	-um	-tum	0.e	-ce	-tum	-u(m)	-un	-tum
=5-	=5-	=5-	=5-	=5-	=5-	=5-	=5-	=5-	=5-	=5-	=5-	=5-	=5-	=5-	=5-	=5-	=5-
0C	Sum-	ſem-	im-	vo-	ſit	0e	ſum-	ſem-	im-	vo-	ſit	0g	ſum-	ſem-	Im-	Vo-	ſit
1GG	-mi	-per	-ple	-ces	uſ-	1d	-mi	-per	-ple	-ces	uſ-	1g	-mi	-per	-ple	-ces	uſ-
=6-	=6-	=6-	=6-	=6-	=6-	=6-	=6-	=6-	=6-	=6-	=6-	=6-	=6-	=6-	=6-	=6-	=6-
1AA	Pa-	re-	be-	pre-	-q(ue)-	1c	Pa-	re-	be-	pre-	-que-	1e	Pa-	re-	be-	pre-	-que-
1A	-ren-	-ſul-	-ni-	-ces-	-q(ua)-	1.c	-ren-	-ſul-	-ni-	-ces-	-qua-	1e	-ren-	-ſul-	-ni-	-ces-	-qua-
1D	-tis	-tat	-gno	-q(ue)	-q(ue) al-	.	.	.	.	.	.	1f	-tis	-tat	-gno	-q(ue)	-q(ue) al-
.	.	.	.	.	.	2c\	-tis	-tat	-gno	-q(ue)	-q(ue) al-	.	.	.	.	.	.
=7-	=7-	=7-	=7-	=7-	=7-	=7-	=7-	=7-	=7-	=7-	=7-	=7-	=7-	=7-	=7-	=7-	=7-
0E	Fi-	lau-	lu-	ſup-	-tiſ-	0B	Fi-	lau-	lu-	ſup-	-tiſ-	0e	Fi-	lau-	lu-	ſup-	-tiſ-
1E	-li-	-di-	-mi-	-pli-	-si-	1B	-li(us)	-di-	-mi-	-pli-	-si-	1e	-li-	-di-	-mi-	-pli-	-si-
=8-	=8-	=8-	=8-	=8-	=8-	=8-	=8-	=8-	=8-	=8-	=8-	=8-	=8-	=8-	=8-	=8-	=8-
0.AA	-(us)	-b(us)	-ne	-cum	-mo	0.A	Ceu	-b(us)	-ne	-cum	-mo	0.c	-(us)	-b(us)	-ne,	-cum	-mo
=9-	=9-	=9-	=9-	=9-	=9-	=9-	=9-	=9-	=9-	=9-	=9-	=9-	=9-	=9-	=9-	=9-	=9-
0E	Ceu	De-	Huc	do-	Na-	0B	.	De-	Huc	Do-	Na-	0e	Ceu	Deum-	Huc	Do-	Na-
1A	mon-	-u(m)-	o	-m(us)	-to-	1c	.	-u(m)q(ue)	orog	-m(us)	-toq(ue)	1e	mon-	-q(ue)	o-	-m(us)	-to-
=10-	=10-	=10-	=10-	=10-	=10-	=10-	=10-	=10-	=10-	=10-	=10-	=10-	=10-	=10-	=10-	=10-	=10-
!	!	!	!	!	!	!LO:TX:t=P:problem:brak źródła-rozmazana kartka	!	!	!	!	!	!	!	!	!	!	!
1.G	-te	-q(ue)	ro-	be-	-q(ue)	1%3ryy	.	.	.	.	.	1.g	-te	Tri-	-ro-	be-	-q(ue)
2G\	de-	Tri-	-ga-	-a-	Pa-	.	.	.	.	.	.	2g\	de-	-nu(m)	-ga-	-a-	[Pa-
1G	-se-	-nu(m) et	-t(us)	-tae	-tris	.	.	.	.	.	.	1g	-ſe-	et	-t(us)	-tae	-tris]
!LO:LB:g=original	!	!	!	!	!	!LO:LB:g=original	!	!	!	!	!	!LO:LB:g=original	!	!	!	!	!
=11-	=11-	=11-	=11-	=11-	=11-	=11-	=11-	=11-	=11-	=11-	=11-	=11-	=11-	=11-	=11-	=11-	=11-
*col	*	*	*	*	*	*col	*	*	*	*	*	*col	*	*	*	*	*
1E	-ct(us)	V-	ad-	mu-	u-	(>1G	ct(us)	.	t(us)	tae	tris	(1g	-ct(us)	V-	ad-	mu-	V-
0D	la-	-ni-	-ve-	-ne-	-ni-	0d)	.	.	.	.	.	0f)	la-	-ni-	-ve-	-ne-	-ni-
*Xcol	*	*	*	*	*	*Xcol	*	*	*	*	*	*Xcol	*	*	*	*	*
=12-	=12-	=12-	=12-	=12-	=12-	=12-	=12-	=12-	=12-	=12-	=12-	=12-	=12-	=12-	=12-	=12-	=12-
1C	-pis	-cum	-ni	-ra	-co	1G	la-	Vni-	ad-	mu-	u-	1e,	-pis	-cum	-ni	-ra	-co
1r	.	.	.	.	.	1c	-pis	-cum	-ve-	-ne-	-ni-	1e	ter-	ju-	ple-	par-	Et
1r	.	.	.	.	.	1B	ter-	iu-	-ni	-ra	-co et	1d	-raſ	-gi	-bis-	-tis-	in-
=13-	=13-	=13-	=13-	=13-	=13-	=13-	=13-	=13-	=13-	=13-	=13-	=13-	=13-	=13-	=13-	=13-	=13-
1%3r	.	.	.	.	.	0A	-raſ	-gi	ple-	par-	In-	2c/	in	ca-	-q(ue)	-q(ue)	-cli-
.	.	.	.	.	.	.	.	.	.	.	.	2d\	.	.	.	.	.
.	.	.	.	.	.	.	.	.	.	.	.	2e\	.	.	.	.	.
.	.	.	.	.	.	.	.	.	.	.	.	2f\	.	.	.	.	.
.	.	.	.	.	.	(2B\	in	ca-	-bisq(ue)	-tisq(ue)	-cly-	2g\	.	.	.	.	.
.	.	.	.	.	.	2c\)	.	.	.	.	.	2e\	.	.	.	.	.
=14-	=14-	=14-	=14-	=14-	=14-	=14-	=14-	=14-	=14-	=14-	=14-	=14-	=14-	=14-	=14-	=14-	=14-
*	*	*	*	*	*	*	*	*	*	*	*	*col	*	*	*	*	*
1%3r	.	.	.	.	.	0d	i-	-no-	vo-	do-	-to	0f#X	i-	-no-	Vo-	do-	-to
.	.	.	.	.	.	1e	-mas	-re	-ta	-nis	Pa-	0g	-maſ	-re	-ta	-nis	Pa-
=15-	=15-	=15-	=15-	=15-	=15-	=15-	=15-	=15-	=15-	=15-	=15-	=15-	=15-	=15-	=15-	=15-	=15-
1%3r	.	.	.	.	.	0d	de-	prae-	ſuſ-	gau-	-ra-	.	.	.	.	.	.
.	.	.	.	.	.	.	.	.	.	.	.	1.f#	de-	prae-	ſuſ-	gau-	-ra-
.	.	.	.	.	.	1d	-ci-	-di-	-ci-	-de-	-cly-	.	.	.	.	.	.
.	.	.	.	.	.	.	.	.	.	.	.	2f#\	-ci-	-di-	-ci-	-de-	-cli-
*	*	*	*	*	*	*	*	*	*	*	*	*Xcol	*	*	*	*	*
=16-	=16-	=16-	=16-	=16-	=16-	=16-	=16-	=16-	=16-	=16-	=16-	=16-	=16-	=16-	=16-	=16-	=16-
1r	.	.	.	.	.	1G	-dens	-cat	-pe	-ant	-to	0.g	-denſ	-cat	-pe	-ant	-to
*	*	*	*	*	*	*	*ij	*ij	*ij	*ij	*ij	*	*	*	*	*	*
1G	ter-	Iu-	ple-	par-	Et	1B	ter-	iu-	ple-	par-	et	.	.	.	.	.	.
1F	-raſ	-gi	-bis-	-tis-	in-	1A	-raſ	-gi	-bis-	-tis-	In-	.	.	.	.	.	.
=17-	=17-	=17-	=17-	=17-	=17-	=17-	=17-	=17-	=17-	=17-	=17-	=17-	=17-	=17-	=17-	=17-	=17-
0E	in	ca-	-q(ue)	-q(ue)	-cly-	2G/	in	ca-	-que	-q(ue)	-cly-	1r	.	.	.	.	.
.	.	.	.	.	.	2A/	.	.	.	.	.	.	.	.	.	.	.
*	*	*	*	*	*	*	*	*	*	*	*	*	*ij	*ij	*ij	*ij	*ij
.	.	.	.	.	.	2B\	.	.	.	.	.	1g	ter-	ju-	ple-	par-	Et
.	.	.	.	.	.	2c\	.	.	.	.	.	.	.	.	.	.	.
2F\	i-	-no-	Vo-	do-	-to	1d	.	.	.	.	.	1f	-raſ	-gi	-bis-	-tis-	in-
2G\	.	.	.	.	.	.	.	.	.	.	.	.	.	.	.	.	.
=18-	=18-	=18-	=18-	=18-	=18-	=18-	=18-	=18-	=18-	=18-	=18-	=18-	=18-	=18-	=18-	=18-	=18-
*	*	*	*	*	*	*col	*	*	*	*	*	*	*	*	*	*	*
0A	.	.	.	.	.	0c	i-	-no-	vo-	do-	-to	1e	in	ca-	-que	-que	-cly-
.	.	.	.	.	.	.	.	.	.	.	.	1e	i-	-no-	Vo-	do-	-to
1B-X	-maſ	-re	-ta	-nis	Pa-	0d	-maſ	-re	-ta	-nis	Pa-	1d	-maſ	-re	-ta	-nis	Pa-
=19-	=19-	=19-	=19-	=19-	=19-	=19-	=19-	=19-	=19-	=19-	=19-	=19-	=19-	=19-	=19-	=19-	=19-
0A	de-	prae-	ſuſ-	gau-	-ra-	.	.	.	.	.	.	0e	de-	prae-	ſuſ-	gau-	-ra-
.	.	.	.	.	.	1.c	de-	prae-	ſuſ-	gau-	-ra-	.	.	.	.	.	.
1A	-ci-	-di-	-ci-	-de-	-cli-	.	.	.	.	.	.	1e	-ci-	-di-	-ci-	-de-	-cli-
.	.	.	.	.	.	2c\	-ci-	-di-	-ci-	-de-	-cly-	.	.	.	.	.	.
*	*	*	*	*	*	*Xcol	*	*	*	*	*	*	*	*	*	*	*
=20-	=20-	=20-	=20-	=20-	=20-	=20-	=20-	=20-	=20-	=20-	=20-	=20-	=20-	=20-	=20-	=20-	=20-
0D	-dens	-cat	-pe	-ant	-to	0d	-dens	-cat	-pe	-ant	-to	0f	-dens	-cat	-pe	-ant	-to
*	*	*	*	*	*	*	*Xij	*Xij	*Xij	*Xij	*Xij	*	*Xij	*Xij	*Xij	*Xij	*Xij
1D	do-	il-	et	do-	Cui	1d	do-	il-	et	Do-	Cui	1f	do-	Il-	et	do-	Cui
=21-	=21-	=21-	=21-	=21-	=21-	=21-	=21-	=21-	=21-	=21-	=21-	=21-	=21-	=21-	=21-	=21-	=21-
1.G	-mus	-li	no-	-nec	laus	1.d	-m(us)	-li	no-	-nec <..-	laus <..	0g	-m(us)	-li	no-	-nec	laus
2G\	su-	ca-	-ſtra	So-	et	2d\	ſu-	ca-	-ſtra	-..>-	..-	.	.	.	.	.	.
1G	-per-	-nen	Cor-	-lu-	po-	1d	-per-	-nen-	Cor-	.	-..>-	1g	ſu-	Ca-	-ſtra	So-	et
!	!	!	!	!	!	!LO:LB:g=original	!	!	!	!	!	!LO:LB:g=original	!	!	!	!	!
=22-	=22-	=22-	=22-	=22-	=22-	=22-	=22-	=22-	=22-	=22-	=22-	=22-	=22-	=22-	=22-	=22-	=22-
0C	-nae	tes	-da	-ti	-te-	0e	-nae	-tes	-da	-ti	-stas	1g	-per-	-nen-	cor-	-lu-	po-
.	.	.	.	.	.	.	.	.	.	.	.	1g	-nae	-tes	-da	-ti	-teſ-
1D	et	jun-	iu-	cor-	-stas	1d	et	jun-	iu-	cor-	glo-	1f	et	jun-	ju-	cor-	-tas
=23-	=23-	=23-	=23-	=23-	=23-	=23-	=23-	=23-	=23-	=23-	=23-	=23-	=23-	=23-	=23-	=23-	=23-
*	*	*	*	*	*	*col	*	*	*	*	*	*	*	*	*	*	*
1.E	in-	.	.	.	glo-	(0B	in-	-gi-	-gi-	-po-	-ri-	0e	in-	.	.	.	glo-
2D\	.	.	.	.	.	.	.	.	.	.	.	.	.	.	.	.	.
2E\	.	.	.	.	.	0c)	-fi-	.	.	.	.	1e	-fi-	-gi-	-gi-	-po-	-ri-
2F\	.	.	.	.	.	.	.	.	.	.	.	.	.	.	.	.	.
=24-	=24-	=24-	=24-	=24-	=24-	=24-	=24-	=24-	=24-	=24-	=24-	=24-	=24-	=24-	=24-	=24-	=24-
0G	.	.	.	.	.	.	.	.	.	.	.	0.d	.	.	.	.	.
.	.	.	.	.	.	0B	.	.	.	.	.	.	.	.	.	.	.
*	*	*	*	*	*	*Xcol	*	*	*	*	*	*	*	*	*	*	*
1G	-fi-	-gi-	-gi-	-po-	-ri-	.	.	.	.	.	.	.	.	.	.	.	.
!LO:LB:g=original	!	!	!	!	!	!	!	!	!	!	!	!	!	!	!	!	!
=25-	=25-	=25-	=25-	=25-	=25-	=25-	=25-	=25-	=25-	=25-	=25-	=25-	=25-	=25-	=25-	=25-	=25-
1C	-mae	-mur	-ter	-re	-a	1c	-mae	-mur	-ter	-re	-a	1e	-mae	-m(ur)	-ter	-re	-a
1c	U-	al-	per-	Se-	ae-	1e	V-	al-	per-	Se-	ae-	1g	V-	al-	per-	Se-	ae-
1G	-trum-	-mae	-fun-	-des	-ter-	1d	-trum-	-mae	-fun-	-des	-ter-	1g	-trum-	-mae	-fun-	-des	-ter-
=26-	=26-	=26-	=26-	=26-	=26-	=26-	=26-	=26-	=26-	=26-	=26-	=26-	=26-	=26-	=26-	=26-	=26-
1.A	-q(uae)	fio-	-de	be-	-na	1.c	-q(ue)	ſi-	-de	be-	-na	(<1e	-que	Sy-	-de	be-	-na
.	.	.	.	.	.	.	.	.	.	.	.	1c)	.	.	.	.	.
2G\	jun-	-nis	cae-	-a-	sit	2B\	.	.	.	.	.	.	.	.	.	.	.
1F	-xit	.	-li	-tas	per	1A	jun-	-o-	cae-	-a-	Sit	1f	jun-	o-	cae-	-a-	Sit
=27-	=27-	=27-	=27-	=27-	=27-	=27-	=27-	=27-	=27-	=27-	=27-	=27-	=27-	=27-	=27-	=27-	=27-
1D	an-	ae-	gra-	im-	sae-	1A	-xit	-nis	-li	-tas	per	1f	-xit	-nis	-li	-tas	per
1.E	.	.	.	.	.	1A	an-	ae-	gra-	im-	Sae-	1.e	an-	ae-	gra-	im-	sae-
.	.	.	.	.	.	1G	-ge-	mu-	-ti-	-ple-	-cu-	.	.	.	.	.	.
2E\	-ge-	-mu-	-ti-	-ple-	-cu-	.	.	.	.	.	.	2d\	-ge-	-mu-	-ti	-ple-	-cu-
=28-	=28-	=28-	=28-	=28-	=28-	=28-	=28-	=28-	=28-	=28-	=28-	=28-	=28-	=28-	=28-	=28-	=28-
1AA	-lu(m)	-li	-a	-ant	-la	1A	-lu(m)	-li	-a	-ant	-la	1e	-lu(m)	-li	-a	-ant	-la
*	*ij	*ij	*ij	*ij	*ij	*	*ij	*ij	*ij	*ij	*ij	*	*ij	*ij	*ij	*ij	*ij
1AA	U-	al-	per-	Se-	ae-	1c	V-	al-	per-	Se-	ae-	1e	V-	al-	per-	Se-	ae-
1E	-trum-	-mae	-fun-	-des	-ter-	1B	-trum-	-mae	-fun-	-des	-ter-	1e	-trum-	-mae	-fun-	-des	-ter-
=29-	=29-	=29-	=29-	=29-	=29-	=29-	=29-	=29-	=29-	=29-	=29-	=29-	=29-	=29-	=29-	=29-	=29-
1AA	-quae	ſy-	-de	be-	-na	1c	-q(ue)	ſi-	-de	be-	-na	0e	-que	Sy-	-de	be-	-na
1AA	jun-	-o-	cae-	-a-	sit	1c	jun-	-o-	cae-	-a-	Sit	.	.	.	.	.	.
1GG	-xit	-nis	-li	-tas	per	1B	-xit	-nis	-li	-tas	per	1e	jun-	-o-	cae-	-a-	sit
=30-	=30-	=30-	=30-	=30-	=30-	=30-	=30-	=30-	=30-	=30-	=30-	=30-	=30-	=30-	=30-	=30-	=30-
0AA	an-	ae-	gra-	im-	sae-	0A	an-	ae-	gra-	im-	Sae-	1e	-xit	-nis	-li	-tas	per
.	.	.	.	.	.	.	.	.	.	.	.	1e	an-	ae-	gra-	im-	sae-
1AA	-ge-	-mu-	-ti-	-ple-	-cu-	1A	-ge-	-mu-	-ti-	-ple-	-cu-	1e	-ge-	-mu-	-ti-	-ple-	-cu-
=31-	=31-	=31-	=31-	=31-	=31-	=31-	=31-	=31-	=31-	=31-	=31-	=31-	=31-	=31-	=31-	=31-	=31-
0.E;	-lu(m)	-li	-a	-ant	-la	0.G;;	-lu(m)	-li	-a	-ant Amen	-la	0.e;;	-lum	-li	-a	-ant	-la
*	*Xij	*Xij	*Xij	*Xij	*Xij	*	*Xij	*Xij	*Xij	*Xij	*Xij	*	*Xij	*Xij	*Xij	*Xij	*Xij
==	==	==	==	==	==	==	==	==	==	==	==	==	==	==	==	==	==
*-	*-	*-	*-	*-	*-	*-	*-	*-	*-	*-	*-	*-	*-	*-	*-	*-	*-
!!!system-decoration: [(s1,s2,s3)]
!!!ENC: Kamil Watkowski
!!!END: 2021-07-09
!!!RDF**kern: > = above
!!!RDF**kern: < = below
